icons/workflow-16.svg

<svg width="16" height="16" viewBox="0 0 16 16" fill="none" xmlns="http://www.w3.org/2000/svg">
<path fill-rule="evenodd" clip-rule="evenodd" d="M0 1.75C0 0.783502 0.783502 0 1.75 0H5.25C6.2165 0 7 0.783502 7 1.75V5.25C7 6.2165 6.2165 7 5.25 7H4V11C4 11.5523 4.44772 12 5 12H9V10.75C9 9.7835 9.7835 9 10.75 9H14.25C15.2165 9 16 9.7835 16 10.75V14.25C16 15.2165 15.2165 16 14.25 16H10.75C9.7835 16 9 15.2165 9 14.25V13.5H5C3.61929 13.5 2.5 12.3807 2.5 11V7H1.75C0.783502 7 0 6.2165 0 5.25V1.75ZM1.75 1.5C1.61193 1.5 1.5 1.61193 1.5 1.75V5.25C1.5 5.38807 1.61193 5.5 1.75 5.5H5.25C5.38807 5.5 5.5 5.38807 5.5 5.25V1.75C5.5 1.61193 5.38807 1.5 5.25 1.5H1.75ZM10.75 10.5C10.6119 10.5 10.5 10.6119 10.5 10.75V14.25C10.5 14.3881 10.6119 14.5 10.75 14.5H14.25C14.3881 14.5 14.5 14.3881 14.5 14.25V10.75C14.5 10.6119 14.3881 10.5 14.25 10.5H10.75Z" fill="#24292E"/>
</svg>

<svg xmlns="http://www.w3.org/2000/svg" width="16" height="16" viewBox="0 0 16 16"><path fill-rule="evenodd" d="M0 1.75C0 .784.784 0 1.75 0h3.5C6.216 0 7 .784 7 1.75v3.5A1.75 1.75 0 015.25 7H4v4a1 1 0 001 1h4v-1.25C9 9.784 9.784 9 10.75 9h3.5c.966 0 1.75.784 1.75 1.75v3.5A1.75 1.75 0 0114.25 16h-3.5A1.75 1.75 0 019 14.25v-.75H5A2.5 2.5 0 012.5 11V7h-.75A1.75 1.75 0 010 5.25v-3.5zm1.75-.25a.25.25 0 00-.25.25v3.5c0 .138.112.25.25.25h3.5a.25.25 0 00.25-.25v-3.5a.25.25 0 00-.25-.25h-3.5zm9 9a.25.25 0 00-.25.25v3.5c0 .138.112.25.25.25h3.5a.25.25 0 00.25-.25v-3.5a.25.25 0 00-.25-.25h-3.5z"/></svg>
